X:110
T:Valse du voyage (Michel Planques)
C:Trad 1, 119
C:ABCB
M:3/4
L:1/8
K:C
AB cd ec|aA aA af|ga gf ed|c2 gc ec|AB cd cB|
Aa gf ed|1 Bc dB cd|e6:|2 Bc dc Bc|A2 ed cB||
|:AB cd cB|AB cd ec|dG Bd cB|Gc de dc|AB cd cB|
AB cd ec|dc Bd cB|1 A2 ed cB:|2 A2 eAeA||
|:cG ce ge|fe dc BA|BG Bd cB|Gc de ge|cG ce ge|
fe dc BA|Bc dc Bc|1 A2 ed cB:|2 A6:|
